public/assets/img/arrow-right-dark.svg

<svg width="24" height="24" viewBox="0 0 24 24" fill="none" xmlns="http://www.w3.org/2000/svg">
<g id="arrow_right">
<path id="shape" d="M13.3633 18.5078C13.6133 18.5078 13.8555 18.4062 14.0664 18.1953L19.1914 13.0859C19.3867 12.8906 19.5039 12.6172 19.5039 12.3438C19.5039 12.0703 19.3867 11.7891 19.1914 11.6016L14.082 6.49219C13.8633 6.27344 13.6133 6.17188 13.3633 6.17188C12.7852 6.17188 12.3789 6.58594 12.3789 7.125C12.3789 7.42188 12.5039 7.65625 12.6836 7.84375L14.457 9.625L16.4336 11.4375L14.6758 11.3438H5.52734C4.91016 11.3438 4.49609 11.75 4.49609 12.3438C4.49609 12.9375 4.91016 13.3438 5.52734 13.3438H14.6758L16.4336 13.2422L14.457 15.0625L12.6836 16.8359C12.5039 17.0234 12.3789 17.2578 12.3789 17.5547C12.3789 18.1016 12.7852 18.5078 13.3633 18.5078Z" fill="white"/>
</g>
</svg>

<svg width="24" height="24" fill="none" xmlns="http://www.w3.org/2000/svg"><path d="M13.363 18.508c.25 0 .492-.102.703-.313l5.125-5.11c.196-.194.313-.468.313-.741 0-.274-.117-.555-.313-.742l-5.109-5.11c-.219-.219-.469-.32-.719-.32-.578 0-.984.414-.984.953 0 .297.125.531.305.719l1.773 1.781 1.977 1.813-1.758-.094H5.527c-.617 0-1.03.406-1.03 1s.413 1 1.03 1h9.149l1.758-.102-1.977 1.82-1.773 1.774c-.18.187-.305.422-.305.719 0 .547.406.953.984.953Z" fill="#fff"/></svg>
